X: 39793
T: Thatcher's Mallet, The
R: reel
M: 4/4
K: Gmajor
dc|:BG ~G2 ABcA|d^cde fdA=c|BG ~G2 ABcA|GGAG FDDA|
BG ~G2 ABcA|d^cde fdA=c|BG ~G2 ABcA|1 dcAF G2 GA:|2 dcAF G2 ze||
|:f2 de fgaf|gfga bgeg|f2 de fgag|bgef gdga|
bgdg afde|fgaf gfdc|BG ~G2 ABcA|1 dcAF G2 z e:|2 dcAF G2 z2||

